white/ampl.svg

<?xml version="1.0" encoding="UTF-8"?>
<svg width="32px" height="32px" viewBox="0 0 32 32" version="1.1" xmlns="http://www.w3.org/2000/svg" xmlns:xlink="http://www.w3.org/1999/xlink">
    <title>svg/white/ampl</title>
    <g id="white/ampl" stroke="none" stroke-width="1" fill="none" fill-rule="evenodd">
        <path d="M16,-3.3553407e-15 C24.836556,-3.3553407e-15 32,7.163444 32,16 C32,24.836556 24.836556,32 16,32 C7.163444,32 0,24.836556 0,16 C0,7.163444 7.163444,-3.3553407e-15 16,-3.3553407e-15 Z M16.5825711,6.25 C16.3011461,6.32322665 16.0285659,6.40078391 15.7527694,6.47716009 C15.7358839,6.51652926 15.7189984,6.55589843 15.7041231,6.59526759 C14.9563367,8.53669245 14.193809,10.4729993 13.41654,12.4041882 L13.41654,12.4041882 L10.9580917,18.4969605 C10.7192825,19.0877604 10.4792672,19.6775106 10.2380458,20.2662108 C10.1189654,20.5578097 9.98354142,20.8427509 9.8323918,21.1197344 C9.72489518,21.3208718 9.59822679,21.5116105 9.45407621,21.6894062 C9.24582148,21.943483 8.97294623,22.1394112 8.66286996,22.2575033 C8.59975036,22.2819122 8.53582668,22.3035652 8.47150097,22.3240372 C8.23624879,22.3939099 7.99686042,22.4496553 7.75467132,22.4909625 C7.6713668,22.5002362 7.58912856,22.517107 7.50902751,22.541355 C7.49635393,22.7774256 7.49702502,23.014002 7.51103769,23.25 L7.51103769,23.2488189 L13.202255,23.2488189 C13.2221147,23.2467181 13.2418434,23.2435639 13.2613542,23.2393703 C13.2653283,23.2275848 13.2681551,23.2154575 13.269797,23.2031507 L13.269797,23.2031507 L13.269797,22.5854485 C13.2678961,22.5690756 13.26412,22.5529641 13.25854,22.5374181 C13.2396443,22.5338749 13.2259751,22.531119 13.2119039,22.5287569 C12.9935985,22.4945057 12.7752931,22.4649788 12.5577918,22.4256096 C12.3608368,22.3937221 12.1671174,22.34498 11.9788604,22.2799437 C11.8605909,22.2405878 11.7488452,22.1844819 11.6471809,22.1134121 C11.4924777,22.0028017 11.3922758,21.8336943 11.3709824,21.6472812 C11.3544301,21.5048932 11.3587623,21.3609187 11.3838475,21.2197321 C11.4154407,21.0083952 11.4652019,20.8000482 11.5326008,20.5969118 C11.7062802,20.0662155 11.8835779,19.5351254 12.0681123,19.0071849 C12.5280411,17.6906799 13.022143,16.385592 13.5154408,15.0805042 C14.1836241,13.3175529 14.8554258,11.5561763 15.4854157,9.7802332 C15.4908127,9.76004454 15.498782,9.74060098 15.5091358,9.72236053 C15.5187847,9.71054978 15.5364742,9.7046444 15.5493394,9.69677057 C15.589945,9.73220282 15.5943674,9.7755089 15.6080366,9.81487807 C16.8972311,13.4268679 18.2007648,17.0337398 19.5186378,20.6354936 C19.5845717,20.8193476 19.6549279,21.0028079 19.7051824,21.1921736 C19.7388353,21.3134637 19.7614378,21.4374372 19.7727244,21.5626375 C19.7940323,21.8382217 19.6931213,22.053571 19.441849,22.1925442 C19.3957845,22.2191564 19.3476609,22.2421923 19.2979202,22.2614402 C19.1982154,22.2980535 19.0973044,22.3342732 18.9947853,22.3622253 C18.7396351,22.4272516 18.4806353,22.4768194 18.2192584,22.510647 C18.1648771,22.5158794 18.1110673,22.5257594 18.0584442,22.5401739 C18.054617,22.5491688 18.0517866,22.5585398 18.0500014,22.568126 L18.0500014,22.568126 L18.0500014,23.2066939 C18.0527675,23.2215868 18.0576387,23.2360297 18.0644747,23.2496063 L18.0644747,23.2496063 L24.4266896,23.2496063 C24.4471934,23.2484252 24.4672952,23.2437009 24.4930255,23.239764 C24.4984686,23.1623278 24.5,23.0846731 24.4974479,23.0070922 C24.4974479,22.9267791 24.5,22.8417417 24.4974479,22.7661529 C24.4950356,22.6905641 24.510715,22.6145816 24.4849847,22.5358433 L24.4849847,22.5358433 L24.3040687,22.5098597 C24.0497636,22.4766444 23.7978556,22.4277292 23.5498497,22.3634064 C23.0889364,22.2468618 22.6899266,21.964255 22.4325925,21.5720861 C22.3489691,21.4468922 22.2705721,21.3173676 22.1986077,21.1850872 C22.0347551,20.8752118 21.8915979,20.5552563 21.7700377,20.2272354 C21.4612743,19.4243668 21.1550571,18.6204484 20.8513861,17.8154802 C19.7405615,14.8710602 18.6570753,11.9167979 17.5776095,8.96096084 C17.2613414,8.09300194 16.9448053,7.22596165 16.6280012,6.35983998 C16.615136,6.32440773 16.5994566,6.28936917 16.5825711,6.25 Z" id="Combined-Shape" fill="#FFFFFF"></path>
    </g>
</svg>

<!-- Generated by IcoMoon.io -->
<svg version="1.1" xmlns="http://www.w3.org/2000/svg" width="32" height="32" viewBox="0 0 32 32">
<title>ampl</title>
<path fill="#fff" d="M16 0c8.837 0 16 7.163 16 16s-7.163 16-16 16-16-7.163-16-16 7.163-16 16-16zM16.583 6.25c-0.282 0.073-0.554 0.15-0.83 0.227-0.017 0.040-0.034 0.079-0.049 0.118-1.739 4.753-2.511 6.672-3.296 8.584l1.009-2.774-2.459 6.092-0.72 1.77c-0.119 0.29-0.254 0.576-0.406 0.853-0.117 0.217-0.242 0.403-0.383 0.577l0.005-0.007c-0.207 0.251-0.474 0.445-0.778 0.564l-0.013 0.004c-0.040 0.017-0.103 0.039-0.167 0.059l-0.024 0.006c-0.236 0.070-0.475 0.126-0.717 0.167-0.092 0.011-0.176 0.028-0.256 0.053l0.010-0.003c-0.013 0.236-0.012 0.473 0.002 0.709v-0.001h5.691c0.023-0.003 0.044-0.006 0.064-0.011l-0.004 0.001c0.004-0.010 0.006-0.023 0.008-0.035l0-0.001v-0.618c-0.002-0.018-0.006-0.034-0.011-0.049l0 0.002-0.047-0.008c-0.218-0.034-0.437-0.064-0.654-0.103-0.221-0.036-0.417-0.087-0.604-0.154l0.024 0.008c-0.126-0.043-0.235-0.1-0.334-0.17l0.004 0.003c-0.15-0.107-0.254-0.273-0.277-0.463l-0-0.003c-0.006-0.051-0.010-0.11-0.010-0.169 0-0.091 0.008-0.18 0.024-0.267l-0.001 0.009c0.035-0.236 0.087-0.446 0.157-0.648l-0.008 0.025c0.173-0.53 0.35-1.062 0.535-1.59 0.46-1.316 0.954-2.621 1.447-3.926 0.669-1.763 1.34-3.525 1.97-5.3 0.006-0.022 0.014-0.042 0.025-0.060l-0.001 0.001c0.010-0.011 0.027-0.017 0.040-0.025 0.040 0.035 0.045 0.079 0.059 0.118 1.29 3.612 2.593 7.219 3.91 10.82 0.067 0.184 0.137 0.368 0.187 0.557 0.034 0.121 0.056 0.245 0.068 0.37 0.021 0.276-0.080 0.492-0.331 0.63-0.046 0.027-0.094 0.050-0.144 0.070-0.1 0.036-0.2 0.072-0.303 0.1-0.211 0.057-0.474 0.109-0.742 0.145l-0.034 0.004c-0.060 0.006-0.114 0.017-0.167 0.032l0.007-0.002c-0.004 0.008-0.007 0.017-0.009 0.026l-0 0.001v0.639c0.003 0.016 0.008 0.031 0.014 0.044l-0-0.001h6.363c0.020-0.002 0.040-0.006 0.066-0.010 0.005-0.078 0.007-0.155 0.004-0.233 0-0.080 0.003-0.165 0-0.24-0.002-0.076 0.014-0.152-0.012-0.231l-0.18-0.026c-0.293-0.039-0.549-0.090-0.798-0.157l0.043 0.010c-0.469-0.12-0.858-0.403-1.113-0.783l-0.004-0.007c-0.072-0.105-0.149-0.232-0.221-0.362l-0.013-0.026c-0.143-0.261-0.287-0.577-0.411-0.903l-0.018-0.055c0.635 1.94 0.324 1.142 0.016 0.344l-0.935-2.756c0.934 3.17-0.174 0.239-1.267-2.7l-2.006-6.154-0.95-2.601c-0.013-0.036-0.029-0.070-0.045-0.11z"></path>
</svg>
